assets/img/braze_icons/arrow-circle-down-right.svg

<svg fill="none" height="24" viewBox="0 0 24 24" width="24" xmlns="http://www.w3.org/2000/svg"><path clip-rule="evenodd" d="m4.22183 4.22183c-4.2957719 4.29576-4.2957719 11.26057 0 15.55637 4.29576 4.2957 11.26057 4.2957 15.55637 0 4.2957-4.2958 4.2957-11.26061 0-15.55637-4.2958-4.2957719-11.26061-4.2957719-15.55637 0zm4.24264 4.24264c.39052-.39053 1.02369-.39053 1.41421 0l3.94972 3.94973v-3.24263c0-.55228.4477-1 1-1s1 .44772 1 1v5.65683c0 .5523-.4477 1-1 1h-5.65683c-.55228 0-1-.4477-1-1s.44772-1 1-1h3.24263l-3.94973-3.94972c-.39053-.39052-.39053-1.02369 0-1.41421z" fill="#801ed7" fill-rule="evenodd"/></svg>

<svg width="24" height="24" viewBox="0 0 24 24" fill="none" xmlns="http://www.w3.org/2000/svg">
<path fill-rule="evenodd" clip-rule="evenodd" d="M4.22183 4.22183C-0.0739419 8.51759 -0.0739419 15.4824 4.22183 19.7782C8.51759 24.0739 15.4824 24.0739 19.7782 19.7782C24.0739 15.4824 24.0739 8.51759 19.7782 4.22183C15.4824 -0.0739419 8.51759 -0.0739419 4.22183 4.22183ZM8.46447 8.46447C8.85499 8.07394 9.48816 8.07394 9.87868 8.46447L13.8284 12.4142V9.17157C13.8284 8.61929 14.2761 8.17157 14.8284 8.17157C15.3807 8.17157 15.8284 8.61929 15.8284 9.17157V14.8284C15.8284 15.3807 15.3807 15.8284 14.8284 15.8284H9.17157C8.61929 15.8284 8.17157 15.3807 8.17157 14.8284C8.17157 14.2761 8.61929 13.8284 9.17157 13.8284H12.4142L8.46447 9.87868C8.07394 9.48816 8.07394 8.85499 8.46447 8.46447Z" fill="#801ED7"/>
</svg>
